img/services/plumber.svg

<svg width="117" height="122" viewBox="0 0 117 122" fill="none" xmlns="http://www.w3.org/2000/svg">
<g clip-path="url(#clip0_6_66)">
<path d="M112.539 110.084C111.584 106.355 110.648 102.623 108.476 99.3687C107.995 98.649 108.017 98.3783 108.778 97.8465C114.112 94.1367 116.523 89.0035 115.953 82.5106C115.915 81.7499 115.647 81.0186 115.186 80.4127C114.724 79.8068 114.09 79.3548 113.367 79.116C112.665 78.8243 111.893 78.746 111.147 78.891C110.401 79.036 109.715 79.3979 109.173 79.9312C107.874 81.1031 106.591 82.2845 105.276 83.4341C103.744 84.7747 101.715 84.8065 100.308 83.5455C98.8464 82.2399 98.6171 80.3165 99.7444 78.6065C100.614 77.2818 101.493 75.9571 102.419 74.6738C103.518 73.1485 103.808 71.5754 102.833 69.8973C101.859 68.2191 100.286 67.7892 98.4451 67.9325C94.1237 68.2748 90.1144 70.3167 87.2963 73.6106C84.4781 76.9045 83.0811 81.1816 83.4117 85.5039C83.4753 86.2777 83.2365 86.3573 82.5965 86.2809C81.0616 86.093 79.5235 85.9115 77.9791 85.8C74.8266 85.5771 72.7695 83.4945 72.7058 80.3452C72.6676 78.4346 72.7249 76.5239 72.6835 74.6292C72.6624 74.3184 72.7165 74.0071 72.8412 73.7217C72.966 73.4362 73.1576 73.185 73.4 72.9893C76.2152 70.5356 78.7563 67.7842 80.9788 64.7831C83.8002 60.8823 85.4369 56.6407 85.2299 51.7272C85.0675 48.0014 85.2299 44.263 85.1726 40.5309C85.1567 39.5564 85.456 39.2985 86.37 39.3717C87.3246 39.4231 88.2813 39.4231 89.2359 39.3717C90.8727 39.324 91.8694 38.3973 91.8853 36.9421C91.9012 35.4868 90.8631 34.4965 89.1754 34.4455C88.9782 34.4312 88.7803 34.4312 88.5831 34.4455C88.0099 34.5124 87.717 34.3532 87.7074 33.694C87.6903 32.8995 87.6125 32.1075 87.4749 31.3248C85.7235 20.8185 80.0978 13.1441 70.5977 8.30176C70.3846 8.2213 70.202 8.07601 70.0758 7.88636C69.9495 7.6967 69.886 7.47223 69.894 7.24454C69.6329 3.04116 66.4644 0.0382938 62.2515 0.0032656C59.1562 -0.0222094 56.0578 0.0032656 52.9594 0.0032656C48.5013 0.0032656 45.4475 2.71637 44.9985 7.15858C44.9924 7.42307 44.9072 7.67967 44.754 7.89534C44.6008 8.111 44.3865 8.27586 44.1387 8.36864C34.006 13.7216 28.2582 22.0392 27.2424 33.5252C27.1819 34.229 27.0099 34.5602 26.2871 34.4615C26.0096 34.4344 25.7302 34.4344 25.4528 34.4615C23.9593 34.5602 22.953 35.5855 22.9849 36.9707C23.0167 38.3018 24.0102 39.2985 25.4432 39.3654C26.4346 39.4307 27.4292 39.4307 28.4206 39.3654C29.3759 39.2794 29.6943 39.5373 29.6784 40.5659C29.6115 44.4572 29.7294 48.3517 29.6307 52.2398C29.5224 56.319 30.742 59.9556 32.9201 63.3342C35.2829 67.0058 38.2858 70.1042 41.4957 73.0243C41.8619 73.3427 42.279 73.6262 42.2663 74.2662C42.2185 76.4093 42.314 78.5556 42.2185 80.6955C42.1665 81.9584 41.6672 83.1618 40.8096 84.0905C39.9521 85.0192 38.7923 85.6127 37.5375 85.765C33.7512 86.1758 29.965 86.5897 26.1724 86.94C15.5557 87.9272 6.33054 95.6175 3.44549 105.986C2.35006 109.912 1.42978 113.889 0.26111 117.797C-0.277051 119.599 -0.0573283 120.949 1.53486 122H2.9551C4.22886 121.519 4.74472 120.523 5.07908 119.274C6.3178 114.647 7.18078 109.903 8.92582 105.438C11.623 98.5471 16.718 94.2386 23.8924 92.3535C24.714 92.1401 25.0101 92.2006 24.9878 93.1496C24.9273 95.5315 24.9496 97.9262 24.9878 100.295C24.9878 100.932 24.8668 101.251 24.2013 101.505C20.501 102.83 18.014 105.4 16.683 109.084C15.6321 111.985 14.6131 114.899 13.575 117.806C12.798 119.978 13.0337 120.742 14.8902 122H16.0811C17.2498 121.589 17.8453 120.726 18.2306 119.57C19.2305 116.612 20.2877 113.676 21.3513 110.74C22.4658 107.661 24.956 105.776 28.1754 105.766C41.4989 105.728 54.8255 105.747 68.1489 105.747C68.3062 105.766 68.4617 105.798 68.6139 105.843C67.6872 107.04 66.7892 108.161 66.2988 109.549C65.8747 110.725 65.6923 111.974 65.7625 113.221C65.8328 114.469 66.1542 115.69 66.7076 116.81C67.261 117.93 68.0349 118.928 68.983 119.742C69.931 120.556 71.0337 121.17 72.225 121.548C72.5752 121.659 73.0242 121.586 73.2535 121.997H76.1194C79.6414 121.417 81.8991 119.08 84.0326 116.472C86.2617 113.743 88.6563 111.148 90.93 108.451C91.4777 107.814 91.7866 107.855 92.242 108.482C92.7802 109.217 93.2092 110.026 93.5157 110.883C94.5347 113.749 95.5983 116.615 96.5663 119.481C96.9357 120.583 97.4675 121.471 98.5215 121.997H99.7125C101.639 121.073 102.053 120.058 101.324 118.007C100.308 115.141 99.2731 112.275 98.2668 109.409C97.6824 107.594 96.69 105.937 95.3658 104.566C94.8818 104.088 94.9869 103.84 95.3404 103.324C96.6969 101.349 98.3177 100.477 100.891 100.407C102.948 100.353 103.715 101.098 104.578 102.569C106.368 105.629 107.024 109.059 107.957 112.399C108.571 114.606 109.183 116.819 109.699 119.051C109.985 120.303 110.508 121.325 111.625 121.994H113.055C114.848 120.959 115.176 120.163 114.647 118.118C113.931 115.443 113.221 112.762 112.539 110.084ZM32.2323 33.4393C33.0411 25.3605 36.8401 19.0777 43.5114 14.4986C43.9699 14.1801 44.4444 13.8999 44.9221 13.6165C45.2405 13.4382 45.5589 13.298 45.9984 13.0529L48.7083 25.2268C48.7783 25.5452 48.8452 25.8636 48.9312 26.1502C49.342 27.58 50.5775 28.3793 51.8863 28.0863C52.2098 28.0221 52.5167 27.8922 52.788 27.7047C53.0593 27.5171 53.2892 27.2759 53.4635 26.9959C53.6378 26.7159 53.7528 26.4032 53.8014 26.0769C53.85 25.7507 53.8311 25.418 53.746 25.0994C52.9467 21.2622 52.0678 17.4409 51.2208 13.6133C50.8291 11.8364 50.4151 10.0627 50.0394 8.27947C49.654 6.43571 50.7495 5.02185 52.6283 5.00275C55.8402 4.96878 59.0543 4.96878 62.2706 5.00275C64.0602 5.02504 65.1747 6.48349 64.7926 8.23171C63.608 13.6897 62.4149 19.1446 61.2134 24.5962C60.8344 26.3222 61.3694 27.5354 62.7259 28.0194C64.2544 28.5608 65.6587 27.6246 66.0759 25.7649C66.9484 21.8609 67.8528 17.9664 68.6553 14.0464C68.8559 13.0656 69.117 13.1325 69.8335 13.556C77.5046 18.1001 81.759 24.8096 82.7238 33.6558C82.8544 34.834 82.087 34.4965 81.5456 34.4965C66.4601 34.4965 51.3768 34.4965 36.2956 34.4965C35.2638 34.4965 34.2289 34.4392 33.2003 34.5156C32.3119 34.5825 32.1527 34.2481 32.2323 33.4329V33.4393ZM38.8526 63.0954C36.942 60.6848 35.3243 58.1214 34.7798 55.0166C34.5728 53.8288 34.662 52.6411 34.6588 51.4533C34.6588 47.8008 34.6843 44.1515 34.6301 40.499C34.6301 39.6074 34.8403 39.3813 35.7383 39.3877C42.9605 39.4259 50.1827 39.41 57.3921 39.41C64.6015 39.41 71.8396 39.41 79.0459 39.3909C79.8961 39.3909 80.1986 39.5406 80.1859 40.4768C80.1286 44.6451 80.1127 48.8103 80.1859 52.9786C80.2432 56.9687 78.3294 60.1148 76.0016 63.0763C72.5911 67.4134 68.305 70.8366 64.1748 74.435C62.5826 75.8361 60.9045 76.5717 58.7869 76.3456C58.0761 76.2597 57.3577 76.2597 56.6469 76.3456C54.0549 76.6832 52.0391 75.7533 50.0967 74.0242C46.2054 70.5182 42.123 67.2256 38.8526 63.089V63.0954ZM47.2212 78.2658C47.3868 78.2658 47.4887 78.2339 47.5396 78.2658C49.9725 80.7146 52.9244 81.5967 56.3253 81.3101C57.7424 81.1922 59.1913 81.2814 60.6083 81.2909C62.6099 81.3126 64.5526 80.6142 66.0823 79.323L67.6745 78.0269C68.0216 84.6027 68.6871 86.1822 72.209 89.029C66.0982 94.9424 50.5934 94.9902 42.6803 89.0545C46.4219 86.4019 47.5842 82.6316 47.218 78.2594L47.2212 78.2658ZM31.2579 100.808C30.2484 100.808 29.8886 100.63 29.9364 99.5343C30.0319 97.1587 29.9873 94.7736 29.9364 92.3949C29.9364 91.758 30.102 91.4173 30.7866 91.4873C30.8256 91.4936 30.8654 91.4936 30.9044 91.4873C34.2639 90.6371 37.1012 91.3727 40.0691 93.3693C45.555 97.1128 52.1157 98.9571 58.7486 98.6204C65.6014 98.3019 71.6549 95.7067 77.2531 91.9013C78.893 90.7868 79.0077 90.7677 81.3132 91.2899C78.9535 94.0189 76.6162 96.6047 74.4285 99.3114C73.5146 100.435 72.572 100.824 71.1263 100.818C57.839 100.752 44.5495 100.746 31.2579 100.802V100.808ZM97.8114 95.4965C97.2348 95.3656 96.6327 95.4035 96.0771 95.6057C95.5214 95.8078 95.0357 96.1657 94.678 96.6365C89.2582 102.916 83.8288 109.185 78.3899 115.443C77.2212 116.794 75.7723 117.418 74.04 116.896C73.2076 116.676 72.4564 116.221 71.8772 115.584C71.298 114.947 70.9155 114.156 70.776 113.307C70.5022 111.899 71.0945 110.759 71.9861 109.731C76.8688 104.094 81.7515 98.4537 86.6343 92.8089C86.7393 92.691 86.8317 92.5605 86.9527 92.4522C88.736 90.8377 89.2677 89.1373 88.6309 86.5707C87.1438 80.5554 91.223 74.4222 97.0058 73.3013C97.044 73.3396 97.0822 73.3809 97.1236 73.416C96.7892 74.3713 96.1014 75.0941 95.5696 75.9189C93.1399 79.6765 93.6972 84.3129 96.958 87.2617C100.158 90.1563 104.973 90.2104 108.387 87.3699C109.202 86.6917 109.979 85.9561 110.915 85.1059C110.996 85.681 110.956 86.2667 110.797 86.8254C109.352 92.7897 103.9 96.4773 97.7955 95.4901L97.8114 95.4965Z" fill="#5C5C5C"/>
</g>
<defs>
<clipPath id="clip0_6_66">
<rect width="116.036" height="122" fill="#5C5C5C"/>
</clipPath>
</defs>
</svg>

<svg xmlns="http://www.w3.org/2000/svg" width="117" height="122" fill="none"><g clip-path="url(#a)"><path fill="#5C5C5C" d="M112.539 110.084c-.955-3.729-1.891-7.461-4.063-10.715-.481-.72-.459-.99.302-1.522 5.334-3.71 7.745-8.843 7.175-15.336a3.777 3.777 0 0 0-2.586-3.395 3.864 3.864 0 0 0-4.194.815c-1.299 1.172-2.582 2.353-3.897 3.503-1.532 1.34-3.561 1.373-4.968.112-1.462-1.306-1.69-3.23-.564-4.94.87-1.324 1.749-2.649 2.675-3.932 1.099-1.526 1.389-3.099.414-4.777-.974-1.678-2.547-2.108-4.388-1.965a16.374 16.374 0 0 0-15.033 17.572c.063.774-.175.853-.816.777-1.534-.188-3.073-.37-4.617-.481-3.152-.223-5.21-2.305-5.273-5.455-.038-1.91.019-3.821-.023-5.716a1.939 1.939 0 0 1 .717-1.64 51.704 51.704 0 0 0 7.579-8.206c2.821-3.9 4.458-8.142 4.25-13.056-.162-3.726 0-7.464-.056-11.196-.016-.975.283-1.233 1.197-1.16.955.052 1.911.052 2.866 0 1.637-.047 2.633-.974 2.65-2.429.015-1.455-1.023-2.446-2.71-2.496a4.094 4.094 0 0 0-.593 0c-.573.066-.866-.093-.876-.752a15.625 15.625 0 0 0-.232-2.37c-1.751-10.506-7.377-18.18-16.877-23.022a1.089 1.089 0 0 1-.704-1.057C69.633 3.04 66.464.038 62.251.003c-3.095-.025-6.193 0-9.292 0-4.458 0-7.512 2.713-7.96 7.156a1.325 1.325 0 0 1-.86 1.21c-10.133 5.353-15.88 13.67-16.897 25.156-.06.704-.232 1.035-.955.937a4.291 4.291 0 0 0-.834 0c-1.494.098-2.5 1.123-2.468 2.509.032 1.33 1.025 2.328 2.458 2.394a22.65 22.65 0 0 0 2.978 0c.955-.086 1.273.172 1.257 1.2-.067 3.892.051 7.787-.047 11.675-.109 4.079 1.111 7.716 3.29 11.094 2.362 3.672 5.365 6.77 8.575 9.69.366.319.783.602.77 1.242-.047 2.143.048 4.29-.047 6.43a5.327 5.327 0 0 1-4.681 5.069c-3.787.41-7.573.825-11.366 1.175-10.616.987-19.841 8.678-22.727 19.046-1.095 3.926-2.015 7.903-3.184 11.811-.538 1.802-.318 3.152 1.274 4.203h1.42c1.274-.481 1.79-1.477 2.124-2.726 1.239-4.627 2.102-9.371 3.847-13.836 2.697-6.89 7.792-11.2 14.966-13.085.822-.213 1.118-.152 1.096.797-.06 2.381-.038 4.776 0 7.145 0 .637-.121.956-.787 1.21-3.7 1.325-6.187 3.895-7.518 7.579-1.05 2.901-2.07 5.815-3.108 8.722-.777 2.172-.541 2.936 1.315 4.194h1.191c1.169-.411 1.764-1.274 2.15-2.43 1-2.958 2.057-5.894 3.12-8.83 1.115-3.079 3.605-4.964 6.824-4.974 13.324-.038 26.65-.019 39.974-.019.157.019.313.051.465.096-.927 1.197-1.825 2.318-2.315 3.706a9.286 9.286 0 0 0 2.684 10.193 9.288 9.288 0 0 0 3.242 1.806c.35.111.8.038 1.029.449h2.865c3.522-.58 5.78-2.917 7.914-5.525 2.229-2.729 4.623-5.324 6.897-8.021.548-.637.857-.596 1.312.031a9.453 9.453 0 0 1 1.274 2.401c1.019 2.866 2.082 5.732 3.05 8.598.37 1.102.901 1.99 1.956 2.516h1.19c1.927-.924 2.341-1.939 1.612-3.99-1.016-2.866-2.05-5.732-3.057-8.598a12.474 12.474 0 0 0-2.901-4.843c-.484-.478-.38-.726-.026-1.242 1.357-1.975 2.978-2.847 5.551-2.917 2.057-.054 2.824.691 3.687 2.162 1.79 3.06 2.446 6.49 3.379 9.83.614 2.207 1.226 4.42 1.742 6.652.286 1.252.809 2.274 1.926 2.943h1.43c1.793-1.035 2.121-1.831 1.592-3.876a683.44 683.44 0 0 1-2.108-8.034ZM32.232 33.439c.81-8.079 4.608-14.361 11.28-18.94.458-.319.932-.6 1.41-.883.319-.178.637-.318 1.076-.563l2.71 12.174c.07.318.137.637.223.923.411 1.43 1.647 2.23 2.955 1.936a2.412 2.412 0 0 0 1.86-2.987c-.8-3.837-1.678-7.658-2.525-11.486-.392-1.777-.806-3.55-1.182-5.334-.385-1.843.71-3.257 2.59-3.276a456.17 456.17 0 0 1 9.642 0c1.79.022 2.904 1.48 2.522 3.229a5232.757 5232.757 0 0 1-3.58 16.364c-.379 1.726.156 2.94 1.513 3.423 1.528.542 2.933-.394 3.35-2.254.872-3.904 1.777-7.799 2.58-11.719.2-.98.461-.913 1.177-.49 7.672 4.544 11.926 11.254 12.89 20.1.131 1.178-.636.84-1.177.84h-45.25c-1.032 0-2.067-.057-3.096.02-.888.067-1.047-.268-.968-1.083v.006Zm6.62 29.656c-1.91-2.41-3.528-4.974-4.072-8.078-.207-1.188-.118-2.376-.121-3.564 0-3.652.025-7.302-.029-10.954 0-.892.21-1.118 1.108-1.111 7.223.038 14.445.022 21.654.022 7.21 0 14.448 0 21.654-.02.85 0 1.153.15 1.14 1.087a399.245 399.245 0 0 0 0 12.502c.057 3.99-1.857 7.136-4.184 10.097-3.41 4.337-7.697 7.76-11.827 11.359-1.592 1.401-3.27 2.137-5.388 1.91a8.918 8.918 0 0 0-2.14 0c-2.592.338-4.608-.592-6.55-2.32-3.892-3.507-7.974-6.8-11.244-10.936v.006Zm8.37 15.17c.165 0 .267-.031.318 0 2.432 2.45 5.384 3.332 8.785 3.045 1.417-.118 2.866-.029 4.283-.02a8.346 8.346 0 0 0 5.474-1.967l1.593-1.296c.347 6.576 1.012 8.155 4.534 11.002-6.11 5.913-21.616 5.961-29.529.026 3.742-2.653 4.904-6.423 4.538-10.796l.003.007Zm-15.964 22.543c-1.01 0-1.37-.178-1.322-1.274.096-2.375.051-4.76 0-7.14 0-.636.166-.977.85-.907a.37.37 0 0 0 .118 0c3.36-.85 6.197-.114 9.165 1.882a30.405 30.405 0 0 0 18.68 5.251c6.852-.318 12.906-2.913 18.504-6.719 1.64-1.114 1.755-1.133 4.06-.611-2.36 2.729-4.697 5.315-6.885 8.021-.913 1.124-1.856 1.513-3.302 1.507a4342.83 4342.83 0 0 0-39.868-.016v.006Zm66.553-5.312a3.078 3.078 0 0 0-3.133 1.14c-5.42 6.28-10.85 12.549-16.288 18.807-1.169 1.351-2.618 1.975-4.35 1.453a4.464 4.464 0 0 1-3.264-3.589c-.274-1.408.319-2.548 1.21-3.576a33200.31 33200.31 0 0 0 14.648-16.922c.105-.118.198-.248.319-.357 1.783-1.614 2.315-3.315 1.678-5.881-1.487-6.016 2.592-12.149 8.375-13.27.038.039.076.08.118.115-.335.955-1.023 1.678-1.554 2.503-2.43 3.758-1.873 8.394 1.388 11.343 3.2 2.894 8.015 2.948 11.429.108.815-.678 1.592-1.414 2.528-2.264.081.575.041 1.16-.118 1.72-1.445 5.964-6.897 9.651-13.001 8.664l.015.007Z"/></g><defs><clipPath id="a"><path fill="#5C5C5C" d="M0 0h116.036v122H0z"/></clipPath></defs></svg>
